icons/puzzle.svg

<svg width="24" height="24" viewBox="0 0 24 24" fill="none" xmlns="http://www.w3.org/2000/svg">
<path d="M10 3C9.46957 3 8.96086 3.21071 8.58579 3.58579C8.21071 3.96086 8 4.46957 8 5V7H3V12H5C5.53043 12 6.03914 12.2107 6.41421 12.5858C6.78929 12.9609 7 13.4696 7 14C7 14.5304 6.78929 15.0391 6.41421 15.4142C6.03914 15.7893 5.53043 16 5 16H3V21H8V19C8 18.4696 8.21071 17.9609 8.58579 17.5858C8.96086 17.2107 9.46957 17 10 17C10.5304 17 11.0391 17.2107 11.4142 17.5858C11.7893 17.9609 12 18.4696 12 19V21H17V16H19C19.5304 16 20.0391 15.7893 20.4142 15.4142C20.7893 15.0391 21 14.5304 21 14C21 13.4696 20.7893 12.9609 20.4142 12.5858C20.0391 12.2107 19.5304 12 19 12H17V7H12V5C12 4.46957 11.7893 3.96086 11.4142 3.58579C11.0391 3.21071 10.5304 3 10 3Z" stroke="white" stroke-width="2" stroke-linecap="round" stroke-linejoin="round"/>
</svg>

<svg
  width="24"
  height="24"
  viewBox="0 0 24 24"
  xmlns="http://www.w3.org/2000/svg"
  fill="none"
  stroke="currentColor"
  stroke-width="2"
  stroke-linecap="round"
  stroke-linejoin="round"
>
  <path d="M10 3a2 2 0 0 0-2 2v2H3v5h2a2 2 0 1 1 0 4H3v5h5v-2a2 2 0 1 1 4 0v2h5v-5h2a2 2 0 1 0 0-4h-2V7h-5V5a2 2 0 0 0-2-2z" />
</svg>
